X: 764
T: Paddy From Portlaw   #2
R: jig
%S: s:2 b:14(7+7)
B: O'Neill's 1850 "Music of Ireland" #764
Z: Stephen Foy (shf@access.digex.net)
%: abc 1.6
M: 6/8
K: D
"^A"[:: d/B/ | AFD DFD |1 AFD D2 :|2 GEE E2 :|3 AFA d2e | fed BdB | AFD D2 "^B":: f/g/ | afd dfd |
| afd d2f/g/ | afd dfd | gee e2 || f/g/ | agf bag | agf edc | fdB ABG | FDD D2 :|
